assets/images/js.svg

<?xml version="1.0" standalone="no"?>
<!DOCTYPE svg PUBLIC "-//W3C//DTD SVG 1.0//EN" "http://www.w3.org/TR/2001/REC-SVG-20010904/DTD/svg10.dtd">
<svg xmlns="http://www.w3.org/2000/svg" xmlns:xlink="http://www.w3.org/1999/xlink" id="body_1" width="32" height="32">

<g transform="matrix(1.015873 0 0 1.015873 0 0)">
    <path d="M0 0L31.5 0L31.5 31.5L0 31.5L0 0zM28.92 23.987C 28.69 22.55 27.754 21.342 24.979 20.216C 24.013 19.763 22.939 19.448 22.62 18.716C 22.506115 18.421005 22.485178 18.098234 22.560001 17.791C 22.701233 17.406612 22.993483 17.096678 23.368923 16.933132C 23.744362 16.769587 24.170343 16.76665 24.548002 16.925001C 25.123516 17.118595 25.58937 17.548084 25.829002 18.106C 27.186003 17.219002 27.186003 17.219002 28.129002 16.629002C 27.91406 16.258465 27.655922 15.914727 27.360003 15.605001C 26.404383 14.589825 25.024828 14.086584 23.640003 14.248001L23.640003 14.248001L22.715004 14.365001C 21.846985 14.55794 21.061817 15.019453 20.471004 15.684001C 19.774677 16.554594 19.461075 17.670305 19.601854 18.776192C 19.742634 19.882078 20.325768 20.883635 21.218004 21.552002C 23.010004 22.891003 25.629004 23.185001 25.964005 24.446003C 26.279005 25.982002 24.822004 26.474003 23.384005 26.297003C 22.397963 26.076939 21.557589 25.436428 21.084005 24.544003L21.084005 24.544003L18.684006 25.923002C 18.952728 26.465395 19.312244 26.957829 19.747005 27.379002C 22.031006 29.679 27.740005 29.566002 28.765005 26.061C 28.97675 25.358347 29.011108 24.614176 28.865005 23.895L28.865005 23.895L28.925005 23.983zM17.130001 14.478L14.180001 14.478C 14.180001 17.022 14.168001 19.549 14.168001 22.097C 14.278866 23.28554 14.217908 24.483847 13.987001 25.655C 13.554002 26.555 12.438002 26.444 11.932001 26.285C 11.459722 26.035254 11.078541 25.642523 10.843001 25.163C 10.799309 25.070122 10.743121 24.983654 10.676002 24.906L10.676002 24.906L8.276001 26.383C 8.65018 27.201048 9.253988 27.892752 10.014001 28.373999C 11.298724 29.078821 12.803312 29.268995 14.2230015 28.905998C 15.243135 28.655172 16.107832 27.981094 16.6 27.053C 17.269001 25.831999 17.128 24.335999 17.121 22.661C 17.137001 19.960999 17.121 17.268 17.121 14.551L17.121 14.551L17.126 14.478z" stroke="none" fill="#CACACA" fill-rule="nonzero" />
</g>
</svg>

<svg xmlns="http://www.w3.org/2000/svg" width="86.729" height="89.218" viewBox="0 0 86.729 89.218"><g transform="translate(0.72 0.748)"><path d="M0,0H31.5V31.5H0ZM28.92,23.987c-.23-1.437-1.166-2.645-3.941-3.771-.966-.453-2.04-.768-2.359-1.5a1.55,1.55,0,0,1-.06-.925,1.5,1.5,0,0,1,1.988-.866,2.135,2.135,0,0,1,1.281,1.181c1.357-.887,1.357-.887,2.3-1.477a5.417,5.417,0,0,0-.769-1.024,4.408,4.408,0,0,0-3.72-1.357l-.925.117a4.231,4.231,0,0,0-2.244,1.319,4.118,4.118,0,0,0,.747,5.868c1.792,1.339,4.411,1.633,4.746,2.894.315,1.536-1.142,2.028-2.58,1.851a3.456,3.456,0,0,1-2.3-1.753l-2.4,1.379a5.308,5.308,0,0,0,1.063,1.456c2.284,2.3,7.993,2.187,9.018-1.318a4.442,4.442,0,0,0,.1-2.166l.06.088Zm-11.79-9.509h-2.95c0,2.544-.012,5.071-.012,7.619a12.427,12.427,0,0,1-.181,3.558c-.433.9-1.549.789-2.055.63a2.532,2.532,0,0,1-1.089-1.122,1.126,1.126,0,0,0-.167-.257l-2.4,1.477a4.642,4.642,0,0,0,1.738,1.991,5.776,5.776,0,0,0,4.209.532A3.687,3.687,0,0,0,16.6,27.053c.669-1.221.528-2.717.521-4.392.016-2.7,0-5.393,0-8.11l.005-.073Z" transform="translate(27.03 28.035)" fill="#f7df1e"/><path d="M60,46.66V19.993a6.667,6.667,0,0,0-3.333-5.767L33.333.893a6.667,6.667,0,0,0-6.667,0L3.333,14.226A6.667,6.667,0,0,0,0,19.993V46.66a6.667,6.667,0,0,0,3.333,5.767L26.667,65.76a6.667,6.667,0,0,0,6.667,0L56.667,52.427A6.667,6.667,0,0,0,60,46.66Z" transform="translate(33.327) rotate(30)" fill="none" stroke="#f7df1e" stroke-linecap="round" stroke-linejoin="round" stroke-width="1"/></g></svg>
